components/ui-separator-icon/src/tab.svg

<svg width="16" height="16"  viewBox="0 0 16 16" fill="none" xmlns="http://www.w3.org/2000/svg">
  <path fill-rule="evenodd" clip-rule="evenodd" d="M14.5 3C14.2239 3 14 3.22386 14 3.5V11.5C14 11.7761 14.2239 12 14.5 12C14.7761 12 15 11.7761 15 11.5V3.5C15 3.22386 14.7761 3 14.5 3ZM8.85355 4.14645C8.65829 3.95118 8.34171 3.95118 8.14645 4.14645C7.95118 4.34171 7.95118 4.65829 8.14645 4.85355L10.2929 7H1.5C1.22386 7 1 7.22386 1 7.5C1 7.77614 1.22386 8 1.5 8H10.2929L8.14645 10.1464C7.95118 10.3417 7.95118 10.6583 8.14645 10.8536C8.34171 11.0488 8.65829 11.0488 8.85355 10.8536L11.8536 7.85355C12.0488 7.65829 12.0488 7.34171 11.8536 7.14645L8.85355 4.14645Z" fill="currentColor"/>
</svg>

<svg xmlns="http://www.w3.org/2000/svg" width="16" height="16" fill="none" viewBox="0 0 16 16">
  <path fill="currentColor" fill-rule="evenodd" d="M14.5 3a.5.5 0 0 0-.5.5v8a.5.5 0 0 0 1 0v-8a.5.5 0 0 0-.5-.5ZM8.854 4.146a.5.5 0 1 0-.708.708L10.293 7H1.5a.5.5 0 0 0 0 1h8.793l-2.147 2.146a.5.5 0 0 0 .708.708l3-3a.5.5 0 0 0 0-.708l-3-3Z" clip-rule="evenodd"/>
</svg>
